X:144
T: WOHLAUF IHR LIEBEN LEUTE
N: F0271
O: Europa, Mitteleuropa, Deutschland
R: Jugend - Lied, Wander - Lied, Sommer
M: 6/8
L: 1/8
K: C
G, | G,2CC2E | E3Cz
E | D2CB,2A, | G,3z2
G, | B,2CD2E | F3Dz
F | E2DC2B, | C3z2

@@@ Tune index: 5575
